T: James Brown's March
M: 4/4
L: 1/8
K: Gmaj
|D3E GAB2-|Bged e/g/e/d/ Bd/B/|A3B deg2-|gbag e2ed/B/||D3E GAB2-|Bged e/g/e/d/ Bd/B/|A3B deg2-|gbag d/e/g/e/d2|||g/e/d/B/ Ag/e/ d/B/A z G-|G/A/B/A/ B>A GE E2| g/e/d/B/ cg/e/ d/B/c z g-|ga b/a/g d/e/g/e/d2||g/e/d/B/ Ag/e/ d/B/A z G-|G/A/B/A/ B>A GE E2| g/e/d/B/ cg/e/ d/B/c z g-|ga b/a/g e2ed/B/||
